X: 40109
T: Tico Tico
R: reel
M: 4/4
K: Bminor
F=F^F|"Bm"G2FB2 F=F^F|"F#7"G2Fc2 F=F^F|GFec ^AFE^D|"Bm"D3^A B^A=A^G|
"Em"G2Be2 GBe|"Bm"F2Bd2 FB^B|"C#7"~c3d cB^AB|"F#"c3c2 F=F^F|
"Bm"G2FB2 F=F^F|"F#7"G2Fc2 F=F^F|GFec ^AFE^D|"Bm"D3^A B^A=A^G|
"Em"GBeG BeGB|"Bm"FBdF Bd(3F^Ac|"F#"fFfg fedc|"Bm"B3 B2:|
K:D
FG^G|"D"A2^GA2 ^GA^A|"Em"B2G3 FG^G|"A7"ACEA CEc=c|"D"B2F3 ddF|
dFdF cFcF|"Em"B2G3 =C^CE|"A7"c2GB2 FG^G|"D"A2F3 =F^FG|
ADFA DFA^A|"Em"BEGB Edc/=c/B|"A7"ACEA CEA^A|"D"BF~F2 FAdc|
"G"B^ABc "G#dim"edcd|"D/A"fg^ga "B"ba=gf|"Em"edcB "A"AGFE|"D"D3 D2:|
K:B
Bdf|"B"bBdf aBdf|gBdf gfdB|bBdf aBdf|"C#m7"gGce gecG|
bGce aGce|"F#9"gGce gecG|bGce aGce|"B"gBdf gfdB|
bBdf aBdf|gBdf gfdB|"G#"~g3=a gfed|"C#m"gfed "B/D"cBA=A|
"E"G=A^AB "Fdim"cBAB|"B/F#"de=f^f "G#"gfed|"C#m"cBAG "F#"FEDC|"B"B,3 B,2:|

